assets/images/introduction/frame_1.svg

<svg class="typst-doc" viewBox="0 0 28.796833333333332 7.171500000000001" width="28.796833333333332pt" height="7.171500000000001pt" xmlns="http://www.w3.org/2000/svg" xmlns:xlink="http://www.w3.org/1999/xlink" xmlns:h5="http://www.w3.org/1999/xhtml">
    <g>
        <g class="typst-text" transform="matrix(1 0 0 -1 0 7.171500000000001)">
            <use xlink:href="#gFFE59CE607173AAD428879E680BF74A8" x="0" y="0" fill="#262625" fill-rule="nonzero"/>
        </g>
        <g class="typst-text" transform="matrix(1 0 0 -1 12.461166666666667 7.171500000000001)">
            <use xlink:href="#g1B673C6FC6ED49F28005CA2C0FD9DB37" x="0" y="0" fill="#262625" fill-rule="nonzero"/>
        </g>
        <g class="typst-text" transform="matrix(1 0 0 -1 23.546833333333332 7.171500000000001)">
            <use xlink:href="#gA5E8FE7752B162E63216463920FE3163" x="0" y="0" fill="#262625" fill-rule="nonzero"/>
        </g>
    </g>
    <defs id="glyph">
        <symbol id="gFFE59CE607173AAD428879E680BF74A8" overflow="visible">
            <path d="M 0 0m 9.072 7.1714997 c -0.19950008 0 -0.8505001 -0.031499863 -1.0499992 -0.031499863 c -0.19950056 0 -0.86100054 0.031499863 -1.0605006 0.031499863 c -0.15749979 0 -0.23099995 -0.083999634 -0.23099995 -0.25199986 c 0 -0.094500065 0.07350016 -0.14699984 0.23099995 -0.15749979 c 0.44099998 0 0.6615 -0.13650036 0.6615 -0.40950012 c 0 -0.0630002 -0.010499954 -0.13649988 -0.020999908 -0.21000004 l -1.1339998 -4.494 l -2.2575002 5.3025 c -0.083999634 0.19950008 -0.10500002 0.22049999 -0.36749983 0.22049999 h -1.3964999 c -0.2520001 0 -0.34650016 -0.020999908 -0.34650016 -0.25199986 c 0 -0.10500002 0.11549997 -0.15749979 0.33599997 -0.15749979 c 0.44099998 0 0.6615 -0.010499954 0.67200017 -0.042000294 l -1.3965001 -5.5649996 c -0.094499946 -0.4095 -0.33599997 -0.64049995 -0.7139999 -0.714 c -0.273 -0.031499982 -0.588 0.010500014 -0.588 -0.2835 c 0 -0.105000004 0.06299999 -0.1575 0.1785 -0.1575 c 0.18900001 0 0.84 0.0315 1.0395 0.0315 c 0.19950008 0 0.87150013 -0.0315 1.071 -0.0315 c 0.15750003 0 0.23099995 0.084 0.23099995 0.252 c 0 0.094500005 -0.08399987 0.14699998 -0.25199986 0.1575 c -0.43050003 0.010499984 -0.64050007 0.14700001 -0.64050007 0.4095 c 0 0.05250001 0.010499954 0.12599999 0.0315001 0.23099995 l 1.3544998 5.3654995 l 2.625 -6.1949997 c 0.0630002 -0.14699998 0.14699984 -0.22049999 0.2414999 -0.22049999 c 0.094500065 0 0.15750027 0.084 0.19950008 0.252 l 1.4594998 5.775 c 0.13650036 0.53550005 0.43050003 0.7245002 1.0815 0.73500013 c 0.14700031 0.010499954 0.22049999 0.09449959 0.22049999 0.2624998 c -0.031499863 0.094500065 -0.041999817 0.14699984 -0.17850018 0.14699984 Z "/>
        </symbol>
        <symbol id="g1B673C6FC6ED49F28005CA2C0FD9DB37" overflow="visible">
            <path d="M 0 0m 7.203 2.3834999 c 0.10500002 0.05250001 0.15749979 0.12600017 0.15749979 0.24150014 c 0 0.11549997 -0.05249977 0.18899989 -0.15749979 0.2414999 l -6.027 2.856 c -0.031499982 0.010499954 -0.07350004 0.020999908 -0.11549997 0.020999908 c -0.16800004 0 -0.25200003 -0.083999634 -0.25200003 -0.2624998 c 0 -0.094500065 0.05250001 -0.16800022 0.14700001 -0.21000004 l 5.607 -2.646 l -5.607 -2.646 c -0.094500005 -0.042000003 -0.14700001 -0.1155 -0.14700001 -0.21 c 0 -0.17850001 0.08399999 -0.2625 0.25200003 -0.2625 c 0.041999936 0 0.08399999 0.010500014 0.11549997 0.020999998 Z "/>
        </symbol>
        <symbol id="gA5E8FE7752B162E63216463920FE3163" overflow="visible">
            <path d="M 0 0m 2.6145 -0.23099999 c 1.4804997 0 2.2154999 1.1969999 2.2154999 3.5909998 c 0 1.6064999 -0.33599997 2.6775 -0.99749994 3.2025 c -0.36750007 0.28349972 -0.77699995 0.43050003 -1.2075 0.43050003 c -1.4805 0 -2.2154999 -1.2075 -2.2154999 -3.6330001 c 0 -1.9319999 0.51449996 -3.5909998 2.205 -3.5909998 Z m 1.1759999 5.733 c 0.07349992 -0.36749983 0.10500002 -1.0394998 0.10500002 -2.0159998 c 0 -0.9660001 -0.042000055 -1.6800001 -0.11549997 -2.1420002 c -0.13650012 -0.84 -0.5250001 -1.26 -1.1654999 -1.26 c -0.24150014 0 -0.48300004 0.0945 -0.70350003 0.273 c -0.28350008 0.24150002 -0.45150006 0.735 -0.525 1.4909999 c -0.0315001 0.26249993 -0.042000055 0.80849993 -0.042000055 1.6380001 c 0 0.91349983 0.031499982 1.5539999 0.08399999 1.9004998 c 0.094500065 0.57749987 0.28349996 0.9450002 0.5775001 1.1025 c 0.23099995 0.12599993 0.4304998 0.18900013 0.60899997 0.18900013 c 0.6824999 0 1.0604999 -0.55649996 1.1759999 -1.1760001 Z "/>
        </symbol>
    </defs>
</svg>

<svg class="typst-doc" viewBox="0 0 28.796833333333332 7.171500000000001" width="28.796833333333332pt" height="7.171500000000001pt" xmlns="http://www.w3.org/2000/svg" xmlns:xlink="http://www.w3.org/1999/xlink" xmlns:h5="http://www.w3.org/1999/xhtml">
    <g>
        <g transform="translate(0 7.171500000000001)">
            <g class="typst-text" transform="scale(1, -1)">
                <use xlink:href="#gE8D41A7B821A6DA6449385730041271C" x="0" fill="#262625" fill-rule="nonzero"/>
            </g>
        </g>
        <g transform="translate(12.461166666666667 7.171500000000001)">
            <g class="typst-text" transform="scale(1, -1)">
                <use xlink:href="#g4026F2AE0915FEFF1AFA11899F67637E" x="0" fill="#262625" fill-rule="nonzero"/>
            </g>
        </g>
        <g transform="translate(23.546833333333332 7.171500000000001)">
            <g class="typst-text" transform="scale(1, -1)">
                <use xlink:href="#g5C0D1D2E151935F3439EF1D4CB39DF87" x="0" fill="#262625" fill-rule="nonzero"/>
            </g>
        </g>
    </g>
    <defs id="glyph">
        <symbol id="gE8D41A7B821A6DA6449385730041271C" overflow="visible">
            <path d="M 9.072 7.1714997 C 8.872499 7.1714997 8.221499 7.14 8.022 7.14 C 7.8224998 7.14 7.161 7.1714997 6.9614997 7.1714997 C 6.804 7.1714997 6.7304997 7.0875 6.7304997 6.9195 C 6.7304997 6.825 6.804 6.7725 6.9614997 6.762 C 7.4024997 6.762 7.6229997 6.6254997 7.6229997 6.3525 C 7.6229997 6.2894998 7.6124997 6.216 7.6019998 6.1425 L 6.468 1.6485 L 4.2105 6.9509997 C 4.1265 7.1505 4.1054997 7.1714997 3.843 7.1714997 L 2.4465 7.1714997 C 2.1945 7.1714997 2.1 7.1505 2.1 6.9195 C 2.1 6.8145 2.2154999 6.762 2.4359999 6.762 C 2.8769999 6.762 3.0974998 6.7515 3.108 6.72 L 1.7114999 1.155 C 1.617 0.74549997 1.3755 0.5145 0.9975 0.44099998 C 0.7245 0.4095 0.4095 0.4515 0.4095 0.1575 C 0.4095 0.0525 0.4725 0 0.588 0 C 0.777 0 1.428 0.0315 1.6274999 0.0315 C 1.827 0.0315 2.499 0 2.6985 0 C 2.856 0 2.9294999 0.084 2.9294999 0.252 C 2.9294999 0.3465 2.8455 0.399 2.6775 0.4095 C 2.247 0.42 2.037 0.5565 2.037 0.819 C 2.037 0.8715 2.0475 0.945 2.0685 1.05 L 3.4229999 6.4154997 L 6.048 0.22049999 C 6.111 0.0735 6.1949997 0 6.2894998 0 C 6.384 0 6.447 0.084 6.489 0.252 L 7.9484997 6.027 C 8.085 6.5625 8.379 6.7515 9.03 6.762 C 9.177 6.7725 9.2505 6.8564997 9.2505 7.0245 C 9.219 7.119 9.2085 7.1714997 9.072 7.1714997 Z "/>
        </symbol>
        <symbol id="g4026F2AE0915FEFF1AFA11899F67637E" overflow="visible">
            <path d="M 7.203 2.3834999 C 7.308 2.4359999 7.3605 2.5095 7.3605 2.625 C 7.3605 2.7405 7.308 2.814 7.203 2.8665 L 1.176 5.7225 C 1.1445 5.733 1.1025 5.7434998 1.0605 5.7434998 C 0.8925 5.7434998 0.8085 5.6595 0.8085 5.481 C 0.8085 5.3865 0.861 5.3129997 0.9555 5.271 L 6.5625 2.625 L 0.9555 -0.021 C 0.861 -0.063 0.8085 -0.1365 0.8085 -0.23099999 C 0.8085 -0.4095 0.8925 -0.4935 1.0605 -0.4935 C 1.1025 -0.4935 1.1445 -0.48299998 1.176 -0.4725 Z "/>
        </symbol>
        <symbol id="g5C0D1D2E151935F3439EF1D4CB39DF87" overflow="visible">
            <path d="M 2.6145 -0.23099999 C 4.095 -0.23099999 4.83 0.96599996 4.83 3.36 C 4.83 4.9665 4.494 6.0375 3.8325 6.5625 C 3.465 6.8459997 3.0555 6.993 2.625 6.993 C 1.1445 6.993 0.4095 5.7855 0.4095 3.36 C 0.4095 1.428 0.92399997 -0.23099999 2.6145 -0.23099999 Z M 3.7905 5.502 C 3.8639998 5.1345 3.8955 4.4625 3.8955 3.486 C 3.8955 2.52 3.8535 1.806 3.78 1.344 C 3.6434999 0.504 3.2549999 0.084 2.6145 0.084 C 2.373 0.084 2.1315 0.1785 1.911 0.357 C 1.6274999 0.5985 1.4595 1.092 1.386 1.8479999 C 1.3544999 2.1104999 1.344 2.6564999 1.344 3.486 C 1.344 4.3995 1.3755 5.04 1.428 5.3865 C 1.5225 5.9639997 1.7114999 6.3315 2.0055 6.489 C 2.2365 6.615 2.4359999 6.678 2.6145 6.678 C 3.297 6.678 3.675 6.1215 3.7905 5.502 Z "/>
        </symbol>
    </defs>
</svg>
